data/icons/hicolor/scalable/actions/software-update-available-symbolic.svg

<?xml version="1.0" encoding="UTF-8"?>
<svg height="16px" viewBox="0 0 16 16" width="16px" xmlns="http://www.w3.org/2000/svg">
    <path d="m 8 0 c -0.257812 0 -0.511719 0.0976562 -0.707031 0.292969 l -1.707031 1.707031 h -2.585938 c -0.550781 0 -1 0.449219 -1 1 v 2.585938 l -1.707031 1.707031 c -0.3906252 0.390625 -0.3906252 1.023437 0 1.414062 l 1.707031 1.707031 v 2.585938 c 0 0.550781 0.449219 1 1 1 h 2.585938 l 1.707031 1.707031 c 0.390625 0.390625 1.023437 0.390625 1.414062 0 l 1.707031 -1.707031 h 2.585938 c 0.550781 0 1 -0.449219 1 -1 v -2.585938 l 1.707031 -1.707031 c 0.390625 -0.390625 0.390625 -1.023437 0 -1.414062 l -1.707031 -1.707031 v -2.585938 c 0 -0.550781 -0.449219 -1 -1 -1 h -2.585938 l -1.707031 -1.707031 c -0.195312 -0.1953128 -0.449219 -0.292969 -0.707031 -0.292969 z m 0 5 c 0.257812 0 0.511719 0.097656 0.707031 0.292969 l 2 2 c 0.183594 0.1875 0.289063 0.441406 0.285157 0.707031 h 0.007812 v 1 h -2 v 2 h -2 v -2 h -2 v -1 h 0.007812 c -0.003906 -0.265625 0.101563 -0.519531 0.285157 -0.707031 l 2 -2 c 0.195312 -0.195313 0.449219 -0.292969 0.707031 -0.292969 z m 0 0" fill="#2e3436"/>
</svg>

<svg xmlns="http://www.w3.org/2000/svg" width="16" height="16">
    <path fill="#2e3436" d="M8 0a.993.993 0 0 0-.707.293L5.586 2H3c-.55 0-1 .45-1 1v2.586L.293 7.293a1 1 0 0 0 0 1.414L2 10.414V13c0 .55.45 1 1 1h2.586l1.707 1.707a1 1 0 0 0 1.414 0L10.414 14H13c.55 0 1-.45 1-1v-2.586l1.707-1.707a1 1 0 0 0 0-1.414L14 5.586V3c0-.55-.45-1-1-1h-2.586L8.707.293A.993.993 0 0 0 8 0zm0 5c.258 0 .512.098.707.293l2 2c.184.187.29.441.285.707H11v1H9v2H7V9H5V8h.008a.992.992 0 0 1 .285-.707l2-2A.993.993 0 0 1 8 5zm0 0"/>
</svg>
